Origami/64x64/apps/diodon.svg

<svg width="64" height="64" version="1" xmlns="http://www.w3.org/2000/svg">
 <rect transform="rotate(90)" x="4" y="-60" width="38" height="38" rx="3" ry="3" style="opacity:.2"/>
 <rect transform="rotate(90)" x="3" y="-60" width="38" height="38" rx="3" ry="3" style="fill:#c2c2c2"/>
 <g transform="matrix(2,0,0,2,8,-7)" style="opacity:.2">
  <path d="m10 11v-1h12v1z"/>
  <path d="m10 14v-1h12v1z"/>
  <path d="m10 17v-1h12v1z"/>
  <path d="m10 20v-1h8v1z"/>
 </g>
 <rect transform="rotate(90)" x="22" y="-42" width="38" height="38" rx="3" ry="3" style="opacity:.2"/>
 <rect transform="rotate(90)" x="21" y="-42" width="38" height="38" rx="3" ry="3" style="fill:#d3d3d3"/>
 <path d="m25 3c-1.662 0-3 1.338-3 3v1c0-1.662 1.338-3 3-3h32c1.662 0 3 1.338 3 3v-1c0-1.662-1.338-3-3-3h-32z" style="fill:#ffffff;opacity:.1"/>
 <path d="m7 21c-1.662 0-3 1.338-3 3v1c0-1.662 1.338-3 3-3h32c1.662 0 3 1.338 3 3v-1c0-1.662-1.338-3-3-3h-32z" style="fill:#ffffff;opacity:.1"/>
 <g transform="matrix(2,0,0,2,-10,11)" style="opacity:.5">
  <path d="m10 11v-1h12v1z"/>
  <path d="m10 14v-1h12v1z"/>
  <path d="m10 17v-1h12v1z"/>
  <path d="m10 20v-1h8v1z"/>
 </g>
</svg>

<svg xmlns="http://www.w3.org/2000/svg" width="64" height="64" version="1">
 <rect style="opacity:0.2" width="38" height="38" x="4" y="-60" rx="3" ry="3" transform="matrix(0,1,-1,0,0,0)"/>
 <rect style="fill:#c2c2c2" width="38" height="38" x="3" y="-60" rx="3" ry="3" transform="matrix(0,1,-1,0,0,0)"/>
 <g style="opacity:0.2" transform="matrix(2,0,0,2,8,-7)">
  <path d="m 10,11 0,-1 12,0 0,1 z"/>
  <path d="m 10,14 0,-1 12,0 0,1 z"/>
  <path d="m 10,17 0,-1 12,0 0,1 z"/>
  <path d="m 10,20 0,-1 8,0 0,1 z"/>
 </g>
 <rect style="opacity:0.2" width="38" height="38" x="22" y="-42" rx="3" ry="3" transform="matrix(0,1,-1,0,0,0)"/>
 <rect style="fill:#d3d3d3" width="38" height="38" x="21" y="-42" rx="3" ry="3" transform="matrix(0,1,-1,0,0,0)"/>
 <path style="opacity:0.1;fill:#ffffff" d="M 25 3 C 23.338 3 22 4.338 22 6 L 22 7 C 22 5.338 23.338 4 25 4 L 57 4 C 58.662 4 60 5.338 60 7 L 60 6 C 60 4.338 58.662 3 57 3 L 25 3 z"/>
 <path style="opacity:0.1;fill:#ffffff" d="M 7 21 C 5.338 21 4 22.338 4 24 L 4 25 C 4 23.338 5.338 22 7 22 L 39 22 C 40.662 22 42 23.338 42 25 L 42 24 C 42 22.338 40.662 21 39 21 L 7 21 z"/>
 <g style="opacity:0.5" transform="matrix(2,0,0,2,-10,11)">
  <path d="m 10,11 0,-1 12,0 0,1 z"/>
  <path d="m 10,14 0,-1 12,0 0,1 z"/>
  <path d="m 10,17 0,-1 12,0 0,1 z"/>
  <path d="m 10,20 0,-1 8,0 0,1 z"/>
 </g>
</svg>
